dist/img/svg/services/ventilation/dehumidification.svg

<svg width="20" height="20" viewBox="0 0 20 20" fill="none" xmlns="http://www.w3.org/2000/svg">
<path d="M18 20H2C0.895898 19.9989 0.00109375 19.1041 0 18V2C0.00109375 0.895899 0.895898 0.00109291 2 0H18C19.1041 0.00109291 19.9989 0.895899 20 2V18C19.9989 19.1041 19.1041 19.9989 18 20V20ZM19.3333 2C19.3333 1.26363 18.7364 0.666679 18 0.666679H2C1.26363 0.666679 0.66668 1.26363 0.66668 2V18C0.66668 18.7364 1.26363 19.3333 2 19.3333H18C18.7364 19.3333 19.3333 18.7364 19.3333 18V2Z" fill="#78C081"/>
<path d="M2.50005 16.3334C3.14439 16.3334 3.66673 16.8557 3.66673 17.5001C3.66673 18.1444 3.14439 18.6667 2.50005 18.6667C1.85572 18.6667 1.33337 18.1444 1.33337 17.5001C1.33337 16.8557 1.85572 16.3334 2.50005 16.3334ZM2.50005 18.0001C2.77619 18.0001 3.00005 17.7762 3.00005 17.5001C3.00005 17.2239 2.77619 17.0001 2.50005 17.0001C2.22392 17.0001 2.00005 17.2239 2.00005 17.5001C2.00005 17.7762 2.22392 18.0001 2.50005 18.0001Z" fill="#78C081"/>
<path d="M17.5001 18.6667C16.8557 18.6667 16.3334 18.1444 16.3334 17.5001C16.3334 16.8557 16.8557 16.3334 17.5001 16.3334C18.1444 16.3334 18.6667 16.8557 18.6667 17.5001C18.6667 17.8095 18.5438 18.1062 18.325 18.325C18.1062 18.5438 17.8095 18.6667 17.5001 18.6667ZM17.5001 17.0001C17.2239 17.0001 17.0001 17.2239 17.0001 17.5001C17.0001 17.7762 17.2239 18.0001 17.5001 18.0001C17.7762 18.0001 18.0001 17.7762 18.0001 17.5001C18.0001 17.2239 17.7762 17.0001 17.5001 17.0001Z" fill="#78C081"/>
<path d="M2.50005 3.66675C1.85572 3.66675 1.33337 3.1444 1.33337 2.50007C1.33337 1.85573 1.85572 1.33339 2.50005 1.33339C3.14439 1.33339 3.66673 1.85573 3.66673 2.50007C3.66673 3.1444 3.14439 3.66675 2.50005 3.66675ZM2.50005 2.00007C2.22392 2.00007 2.00005 2.22394 2.00005 2.50007C2.00005 2.7762 2.22392 3.00007 2.50005 3.00007C2.77619 3.00007 3.00005 2.7762 3.00005 2.50007C3.00005 2.22394 2.77619 2.00007 2.50005 2.00007Z" fill="#78C081"/>
<path d="M17.5001 3.66675C16.8557 3.66675 16.3334 3.1444 16.3334 2.50007C16.3334 1.85573 16.8557 1.33339 17.5001 1.33339C18.1444 1.33339 18.6667 1.85573 18.6667 2.50007C18.6667 3.1444 18.1444 3.66675 17.5001 3.66675ZM17.5001 2.00007C17.2239 2.00007 17.0001 2.22394 17.0001 2.50007C17.0001 2.7762 17.2239 3.00007 17.5001 3.00007C17.7762 3.00007 18.0001 2.7762 18.0001 2.50007C18.0001 2.22394 17.7762 2.00007 17.5001 2.00007Z" fill="#78C081"/>
<path d="M17.6496 14.3431L17.0496 15.3431C16.9287 15.5434 16.712 15.6661 16.478 15.6667H3.52194C3.28795 15.666 3.07131 15.5433 2.95026 15.3431L2.35026 14.3431C2.22666 14.1371 2.22346 13.8806 2.34178 13.6716C2.4601 13.4626 2.68174 13.3334 2.92194 13.3334H17.078C17.3181 13.3334 17.5398 13.4626 17.6581 13.6716C17.7764 13.8806 17.7732 14.1371 17.6496 14.3431ZM2.92194 14.0001L3.52194 15.0001H16.478L17.078 14.0001H2.92194Z" fill="#78C081"/>
<path d="M17.6496 11.3431L17.0496 12.3431C16.9287 12.5434 16.712 12.6661 16.478 12.6667H3.52194C3.28795 12.666 3.07131 12.5433 2.95026 12.3431L2.35026 11.3431C2.22666 11.1371 2.22346 10.8806 2.34178 10.6716C2.4601 10.4626 2.68174 10.3334 2.92194 10.3334H17.078C17.3181 10.3334 17.5398 10.4626 17.6581 10.6716C17.7764 10.8806 17.7732 11.1371 17.6496 11.3431ZM2.92194 11.0001L3.52194 12.0001H16.478L17.078 11.0001H2.92194Z" fill="#78C081"/>
<path d="M17.6496 8.34308L17.0496 9.34308C16.9287 9.54339 16.712 9.66608 16.478 9.66675H3.52194C3.28795 9.66597 3.07131 9.54331 2.95026 9.34308L2.35026 8.34308C2.22666 8.13714 2.22346 7.88061 2.34178 7.67159C2.4601 7.46257 2.68174 7.33339 2.92194 7.33339H17.078C17.3181 7.33339 17.5398 7.46257 17.6581 7.67159C17.7764 7.88061 17.7732 8.1371 17.6496 8.34308ZM2.92194 8.00007L3.52194 9.00007H16.478L17.078 8.00007H2.92194Z" fill="#78C081"/>
<path d="M17.0493 6.34343C16.9283 6.54351 16.7118 6.66604 16.478 6.66675H3.52194C3.28795 6.66597 3.07131 6.54331 2.95026 6.34308L2.35026 5.34308C2.22666 5.13714 2.22346 4.88062 2.34178 4.67159C2.4601 4.46257 2.68174 4.33339 2.92194 4.33339H17.078C17.3181 4.33339 17.5397 4.46257 17.6581 4.67159C17.7764 4.88062 17.7732 5.1371 17.6496 5.34308L17.0493 6.34343ZM2.92194 5.00011L3.52194 6.00011H16.478L17.078 5.00011H2.92194Z" fill="#78C081"/>
</svg>

<svg width="20" height="20" fill="none" xmlns="http://www.w3.org/2000/svg"><path d="M18 20H2a2.002 2.002 0 01-2-2V2a2.002 2.002 0 012-2h16a2.002 2.002 0 012 2v16a2.002 2.002 0 01-2 2zm1.333-18c0-.736-.597-1.333-1.333-1.333H2C1.264.667.667 1.264.667 2v16c0 .736.597 1.333 1.333 1.333h16c.736 0 1.333-.597 1.333-1.333V2z" fill="#78C081"/><path d="M2.5 16.333a1.167 1.167 0 110 2.334 1.167 1.167 0 010-2.334zM2.5 18a.5.5 0 100-1 .5.5 0 000 1zm15 .667a1.167 1.167 0 110-2.334 1.167 1.167 0 010 2.334zm0-1.667a.5.5 0 100 1 .5.5 0 000-1zM2.5 3.667a1.167 1.167 0 110-2.334 1.167 1.167 0 010 2.334zM2.5 2a.5.5 0 100 1 .5.5 0 000-1zm15 1.667a1.167 1.167 0 110-2.334 1.167 1.167 0 010 2.334zM17.5 2a.5.5 0 100 1 .5.5 0 000-1zm.15 12.343l-.6 1a.67.67 0 01-.572.324H3.522a.67.67 0 01-.572-.324l-.6-1a.667.667 0 01.572-1.01h14.156a.667.667 0 01.572 1.01zM2.922 14l.6 1h12.956l.6-1H2.922zm14.728-2.657l-.6 1a.67.67 0 01-.572.324H3.522a.67.67 0 01-.572-.324l-.6-1a.667.667 0 01.572-1.01h14.156a.667.667 0 01.572 1.01zM2.922 11l.6 1h12.956l.6-1H2.922zM17.65 8.343l-.6 1a.67.67 0 01-.572.324H3.522a.67.67 0 01-.572-.324l-.6-1a.667.667 0 01.572-1.01h14.156a.667.667 0 01.572 1.01zM2.922 8l.6 1h12.956l.6-1H2.922zM17.05 6.343a.67.67 0 01-.572.324H3.522a.67.67 0 01-.572-.324l-.6-1a.667.667 0 01.572-1.01h14.156a.667.667 0 01.572 1.01l-.6 1zM2.921 5l.6 1h12.956l.6-1H2.922z" fill="#78C081"/></svg>
